public/assets/images/section2-illo.svg

<svg enable-background="new 0 0 180 246" viewBox="0 0 180 246" xmlns="http://www.w3.org/2000/svg"><path d="m135.5 213h-95.8c-6.2 0-11.3-5.1-11.3-11.3v-156.9c0-3.5 2.8-6.3 6.3-6.3h105.9c3.5 0 6.3 2.8 6.3 6.3v156.9c0 6.2-5.1 11.3-11.4 11.3z" fill="#f3c74a"/><path d="m31.1 176h47.6c8.5 0 15.4-6.9 15.4-15.4v-84.3c0-8.5-6.9-15.4-15.4-15.4h-47.6c-2.1 0-3.8 1.9-3.8 4.2v106.8c0 2.2 1.7 4.1 3.8 4.1z" fill="#f8eec8"/><path d="m28.1 75.2v-32.1c0-3.5 2.8-6.3 6.3-6.3h105.9c3.5 0 6.3 2.8 6.3 6.3v11.4z" fill="#f3c74a" opacity=".67"/><path d="m155.7 48.3h-136.2c-2.4 0-4.4-2-4.4-4.4v-26c0-2.4 2-4.4 4.4-4.4h136.1c2.4 0 4.4 2 4.4 4.4v26c.1 2.4-1.9 4.4-4.3 4.4z" fill="#f8f6e8"/><g fill="#c0d5d0"><path d="m26.2 49.4v-22.7c0-.6-.5-1.2-1.2-1.2-.6 0-1.2.5-1.2 1.2v22.8c1.1-.1 1.7-.1 2.4-.1z"/><path d="m47.4 49.4v-22.7c0-.6-.5-1.2-1.2-1.2-.6 0-1.2.5-1.2 1.2v22.8c1.1-.1 1.8-.1 2.4-.1z"/><path d="m68.7 49.4v-22.7c0-.6-.5-1.2-1.2-1.2-.6 0-1.2.5-1.2 1.2v22.8c1.1-.1 1.7-.1 2.4-.1z"/><path d="m89.9 49.4v-22.7c0-.6-.5-1.2-1.2-1.2-.6 0-1.2.5-1.2 1.2v22.8c1.1-.1 1.7-.1 2.4-.1z"/><path d="m111.2 49.4v-22.7c0-.6-.5-1.2-1.2-1.2-.6 0-1.2.5-1.2 1.2v22.8c1.1-.1 1.7-.1 2.4-.1z"/><path d="m132.4 49.4v-22.7c0-.6-.5-1.2-1.2-1.2-.6 0-1.2.5-1.2 1.2v22.8c1.1-.1 1.8-.1 2.4-.1z"/><path d="m153.7 49.4v-22.7c0-.6-.5-1.2-1.2-1.2-.6 0-1.2.5-1.2 1.2v22.8c1.1-.1 1.7-.1 2.4-.1z"/></g><path d="m155.7 49.9h-136.2c-2.4 0-4.4-2-4.4-4.4v-8.2c0-.4.3-.7.7-.7h143.5c.4 0 .7.3.7.7v8.2c.1 2.5-1.9 4.4-4.3 4.4z" fill="#f8f6e8"/></svg>

<?xml version="1.0" encoding="utf-8"?>
<!-- Generator: Adobe Illustrator 21.1.0, SVG Export Plug-In . SVG Version: 6.00 Build 0)  -->
<svg version="1.1" id="Layer_1" xmlns="http://www.w3.org/2000/svg" xmlns:xlink="http://www.w3.org/1999/xlink" x="0px" y="0px"
	 viewBox="0 0 180 246" style="enable-background:new 0 0 180 246;" xml:space="preserve">
<style type="text/css">
	.st0{fill:#F3C74A;}
	.st1{fill:#F8EEC8;}
	.st2{opacity:0.67;fill:#F3C74A;}
	.st3{fill:#F8F6E8;}
	.st4{fill:#C0D5D0;}
</style>
<path class="st0" d="M135.5,213H39.7c-6.2,0-11.3-5.1-11.3-11.3V44.8c0-3.5,2.8-6.3,6.3-6.3h105.9c3.5,0,6.3,2.8,6.3,6.3v156.9
	C146.9,207.9,141.8,213,135.5,213z"/>
<path class="st1" d="M31.1,176h47.6c8.5,0,15.4-6.9,15.4-15.4V76.3c0-8.5-6.9-15.4-15.4-15.4l-47.6,0c-2.1,0-3.8,1.9-3.8,4.2v106.8
	C27.3,174.1,29,176,31.1,176z"/>
<path class="st2" d="M28.1,75.2V43.1c0-3.5,2.8-6.3,6.3-6.3h105.9c3.5,0,6.3,2.8,6.3,6.3v11.4L28.1,75.2z"/>
<path class="st3" d="M155.7,48.3H19.5c-2.4,0-4.4-2-4.4-4.4v-26c0-2.4,2-4.4,4.4-4.4h136.1c2.4,0,4.4,2,4.4,4.4v26
	C160.1,46.3,158.1,48.3,155.7,48.3z"/>
<path class="st4" d="M26.2,49.4V26.7c0-0.6-0.5-1.2-1.2-1.2h0c-0.6,0-1.2,0.5-1.2,1.2v22.8C24.9,49.4,25.5,49.4,26.2,49.4z"/>
<path class="st4" d="M47.4,49.4V26.7c0-0.6-0.5-1.2-1.2-1.2h0c-0.6,0-1.2,0.5-1.2,1.2v22.8C46.1,49.4,46.8,49.4,47.4,49.4z"/>
<path class="st4" d="M68.7,49.4V26.7c0-0.6-0.5-1.2-1.2-1.2l0,0c-0.6,0-1.2,0.5-1.2,1.2v22.8C67.4,49.4,68,49.4,68.7,49.4z"/>
<path class="st4" d="M89.9,49.4V26.7c0-0.6-0.5-1.2-1.2-1.2l0,0c-0.6,0-1.2,0.5-1.2,1.2v22.8C88.6,49.4,89.2,49.4,89.9,49.4z"/>
<path class="st4" d="M111.2,49.4V26.7c0-0.6-0.5-1.2-1.2-1.2l0,0c-0.6,0-1.2,0.5-1.2,1.2v22.8C109.9,49.4,110.5,49.4,111.2,49.4z"/>
<path class="st4" d="M132.4,49.4V26.7c0-0.6-0.5-1.2-1.2-1.2l0,0c-0.6,0-1.2,0.5-1.2,1.2v22.8C131.1,49.4,131.8,49.4,132.4,49.4z"/>
<path class="st4" d="M153.7,49.4V26.7c0-0.6-0.5-1.2-1.2-1.2l0,0c-0.6,0-1.2,0.5-1.2,1.2v22.8C152.4,49.4,153,49.4,153.7,49.4z"/>
<path class="st3" d="M155.7,49.9H19.5c-2.4,0-4.4-2-4.4-4.4v-8.2c0-0.4,0.3-0.7,0.7-0.7h143.5c0.4,0,0.7,0.3,0.7,0.7v8.2
	C160.1,48,158.1,49.9,155.7,49.9z"/>
</svg>
